img/arrow-next.svg

<svg width="10" height="18" viewBox="0 0 10 18" fill="none" xmlns="http://www.w3.org/2000/svg">
<path fill-rule="evenodd" clip-rule="evenodd" d="M0.366117 0.616117C0.854272 0.127961 1.64573 0.127961 2.13388 0.616117L9.63388 8.11612C10.122 8.60427 10.122 9.39573 9.63388 9.88388L2.13388 17.3839C1.64573 17.872 0.854272 17.872 0.366117 17.3839C-0.122039 16.8957 -0.122039 16.1043 0.366117 15.6161L6.98223 9L0.366117 2.38388C-0.122039 1.89573 -0.122039 1.10427 0.366117 0.616117Z" fill="white" fill-opacity="0.8"/>
</svg>

<svg width="10" height="18" viewBox="0 0 10 18" xmlns="http://www.w3.org/2000/svg" fill="none"><path fill-rule="evenodd" clip-rule="evenodd" d="M.366.616c.488-.488 1.28-.488 1.768 0l7.5 7.5c.488.488.488 1.28 0 1.768l-7.5 7.5c-.488.488-1.28.488-1.768 0s-.488-1.28 0-1.768l6.616-6.616-6.616-6.616c-.488-.488-.488-1.28 0-1.768z" fill="#fff" fill-opacity=".8"/></svg>
